X: 100435
M: C
L: 1/8
K: D
uA, !segno!|\
f>(de)>(c d)>vB(A>F) | (3GAB (3ABc d<DD>A, |
(3fed (3cde (.d>.B)(A>F) | (3GAB (3ABc d2 (d |]| f) |
d<d (f/g/a) (d>a)f>a | (.g>.e)(c>B) (3ABc (3efg |\
f<df<a (.b>.g)(e>d) | (3cde (3ABc d2 (d<f) |
d<d (f/g/a) (d>a)f>a | (.g>.e)(c>B) (3ABc (3efg |\
(3fdf (3ece (.d>.B)(A>F) | (3GAB (3ABc d2 d2 & x4 (3dAG (3FGE !segno!|]


